lib/logo_updates/nrk-logo-nrk-sport-with-bg.svg

<svg width="323" height="85" viewBox="0 0 323 85" fill="none" xmlns="http://www.w3.org/2000/svg">
<rect width="323" height="84" transform="translate(0 0.5)" fill="#E81502"/>
<path d="M20 63.5V21.5038H33.7802V63.5H20ZM52.5283 28.1877L60.4532 63.5H45.3721L35.9092 21.5038H44.3676C46.3072 21.4786 48.1892 22.1624 49.6607 23.4264C51.1347 24.6373 52.1473 26.3184 52.5283 28.1877ZM62.5233 63.5V21.5038H76.3035V63.5H62.5233ZM86.7116 37.4743C85.2267 37.4888 83.7656 37.1003 82.4839 36.3504C81.2193 35.6194 80.1688 34.5689 79.438 33.3041C78.6872 32.0222 78.2986 30.5607 78.3134 29.0751C78.2964 27.5986 78.6853 26.1458 79.438 24.8755C80.1766 23.6245 81.2259 22.5853 82.4839 21.8588C83.766 21.1098 85.2269 20.7213 86.7116 20.7348C88.1877 20.7189 89.6399 21.1078 90.9108 21.8588C92.1562 22.5917 93.1943 23.63 93.9271 24.8755C94.6789 26.1462 95.0677 27.5987 95.0517 29.0751C95.0655 30.5605 94.6769 32.0218 93.9271 33.3041C93.202 34.5633 92.1627 35.613 90.9108 36.3504C89.6398 37.1029 88.1866 37.4918 86.7097 37.4743H86.7116ZM97.1807 63.5V21.5038H110.962V63.5H97.1807ZM128.408 44.4538C128.447 44.4946 128.742 44.9776 129.295 45.903C129.848 46.8283 130.567 48.0114 131.454 49.452C132.341 50.892 133.277 52.4199 134.262 54.036C135.247 55.6521 136.174 57.1803 137.043 58.6202C137.908 60.0602 138.894 61.6867 140 63.5H124.859C123.912 61.9621 123.055 60.5721 122.286 59.33C121.517 58.0878 120.7 56.7471 119.833 55.3077C118.965 53.8698 118.107 52.4699 117.259 51.1081C116.41 49.7464 115.681 48.5536 115.071 47.5297C114.459 46.5051 114.035 45.8149 113.799 45.4594C113.214 44.5771 112.868 43.558 112.794 42.5019C112.853 41.4883 113.179 40.5084 113.74 39.6619C113.976 39.2676 114.41 38.5675 115.041 37.562C115.672 36.5564 116.411 35.3637 117.259 33.9835C118.106 32.6034 118.965 31.1936 119.833 29.7543C120.702 28.315 121.519 26.9643 122.286 25.7025C123.056 24.4419 123.914 23.0421 124.859 21.5029H140L128.289 40.6082C127.926 41.1755 127.722 41.8292 127.697 42.5019C127.736 43.2081 127.983 43.8871 128.406 44.4538H128.408Z" fill="white"/>
<path d="M181.78 43.8456C180.919 42.9679 179.919 42.2379 178.821 41.6849C177.669 41.1021 176.471 40.617 175.239 40.2346C173.976 39.8399 172.674 39.5041 171.332 39.2272C170.305 38.9911 169.348 38.7546 168.461 38.5178C167.646 38.3073 166.853 38.0196 166.093 37.6585C165.44 37.3491 164.832 36.9508 164.289 36.4746C163.776 36.023 163.38 35.4548 163.133 34.818C162.861 34.0689 162.731 33.2756 162.75 32.4787C162.736 31.6536 162.866 30.8325 163.133 30.0517C163.376 29.363 163.782 28.7434 164.317 28.2461C164.871 27.7388 165.5 27.3199 166.182 27.004C166.962 26.6485 167.79 26.409 168.639 26.2935C169.648 26.1496 170.667 26.0804 171.687 26.0864C172.617 26.0882 173.545 26.1373 174.47 26.2334C175.404 26.331 176.333 26.4795 177.252 26.6783C178.144 26.8719 179.024 27.119 179.886 27.4183C180.694 27.696 181.476 28.0423 182.224 28.4533L183.053 23.2449C182.211 22.8057 181.329 22.4489 180.419 22.1794C179.492 21.9038 178.554 21.6666 177.607 21.468C176.648 21.2699 175.68 21.122 174.706 21.025C173.72 20.9263 172.713 20.877 171.687 20.877C169.594 20.8542 167.506 21.0925 165.471 21.5864C163.739 22.0048 162.102 22.7484 160.647 23.7777C159.307 24.7394 158.228 26.021 157.51 27.5061C156.743 29.1754 156.369 30.9977 156.414 32.8339C156.38 34.2549 156.611 35.6698 157.095 37.0063C157.52 38.127 158.175 39.1458 159.019 39.9968C159.854 40.8297 160.812 41.5286 161.86 42.0687C162.971 42.6413 164.13 43.117 165.324 43.4905C166.567 43.8851 167.84 44.2206 169.142 44.4968C170.207 44.733 171.194 44.9796 172.102 45.2368C172.946 45.4695 173.768 45.7765 174.558 46.1543C175.238 46.4749 175.866 46.8938 176.423 47.3975C176.952 47.8942 177.366 48.5003 177.637 49.1734C177.95 49.9846 178.101 50.8495 178.081 51.7189C178.096 52.6434 177.956 53.5639 177.666 54.442C177.407 55.2014 177.005 55.9045 176.482 56.5139C175.957 57.1143 175.312 57.5981 174.588 57.9337C173.77 58.3105 172.903 58.5698 172.012 58.7041C170.925 58.871 169.827 58.9503 168.727 58.941C167.659 58.9384 166.591 58.8691 165.531 58.7338C164.426 58.5956 163.321 58.4079 162.216 58.1705C161.127 57.9386 160.05 57.6521 158.99 57.3121C157.944 56.9786 156.947 56.6336 156 56.2771L156.77 62.1377C157.779 62.5143 158.806 62.84 159.848 63.1135C160.794 63.3618 161.752 63.5594 162.719 63.7054C163.645 63.8429 164.572 63.9514 165.501 64.031C166.43 64.1106 167.367 64.15 168.312 64.1494C170.431 64.1626 172.546 63.9442 174.617 63.4982C176.452 63.1136 178.198 62.391 179.768 61.3671C181.232 60.3979 182.416 59.0607 183.201 57.4897C184.066 55.629 184.482 53.5911 184.415 51.5403C184.447 50.0124 184.217 48.4904 183.734 47.0404C183.321 45.8469 182.655 44.757 181.78 43.8456Z" fill="white"/>
<path d="M214.339 34.522C212.215 33.2212 209.755 32.5728 207.265 32.6573C205.787 32.6646 204.316 32.8531 202.885 33.2186C201.337 33.6126 199.846 34.1997 198.445 34.966C198.167 35.1159 197.89 35.2847 197.616 35.4534V32.7164L191.578 33.6637V75.9297H197.616V62.6763C197.656 62.693 197.694 62.7118 197.734 62.7296C198.828 63.1836 199.97 63.5113 201.138 63.7064C202.517 63.9338 203.913 64.0427 205.311 64.0319C207.976 64.0779 210.604 63.4026 212.917 62.0774C215.189 60.7313 217.036 58.7723 218.245 56.4251C219.643 53.6264 220.325 50.5244 220.228 47.3974C220.284 44.7534 219.769 42.1286 218.718 39.7018C217.792 37.5865 216.271 35.7866 214.339 34.522ZM212.771 54.3235C212.059 55.8954 210.867 57.201 209.367 58.052C207.698 58.9262 205.832 59.3547 203.95 59.2962C203.048 59.2968 202.148 59.2272 201.256 59.0879C200.321 58.939 199.401 58.7116 198.504 58.4082C198.22 58.3095 197.912 58.1971 197.616 58.0885V39.4067C197.694 39.3702 197.775 39.3229 197.853 39.2874C198.72 38.8927 199.529 38.557 200.28 38.28C200.99 38.0148 201.723 37.8166 202.47 37.6881C203.135 37.5736 203.808 37.5141 204.483 37.5104C206.307 37.4498 208.118 37.8467 209.75 38.6648C211.178 39.4418 212.296 40.6846 212.917 42.1861C213.67 44.1073 214.023 46.162 213.953 48.2242C214.016 50.3199 213.612 52.4033 212.771 54.3235Z" fill="white"/>
<path d="M249.088 34.5514C246.622 33.2406 243.859 32.5882 241.067 32.6571C238.249 32.5925 235.463 33.2659 232.985 34.6106C230.698 35.8904 228.828 37.8016 227.598 40.1159C226.262 42.712 225.601 45.6024 225.674 48.521C225.599 51.4173 226.218 54.2895 227.48 56.8975C228.614 59.1741 230.423 61.0453 232.66 62.2559C235.068 63.5172 237.756 64.1482 240.474 64.09C243.319 64.1465 246.131 63.4743 248.643 62.1375C250.989 60.858 252.912 58.9244 254.179 56.5719C255.553 53.9454 256.236 51.0119 256.162 48.0485C256.229 45.2255 255.599 42.4296 254.326 39.9088C253.147 37.6454 251.324 35.7814 249.088 34.5514ZM248.732 54.3826C248.067 55.9206 246.939 57.2136 245.507 58.0825C244.066 58.9067 242.43 59.326 240.771 59.296C239.143 59.3365 237.539 58.9043 236.152 58.0519C234.781 57.1405 233.709 55.843 233.074 54.3234C232.268 52.3737 231.885 50.2754 231.949 48.1668C231.879 46.115 232.263 44.0731 233.074 42.1869C233.738 40.7044 234.845 39.4637 236.242 38.635C237.735 37.8126 239.421 37.4039 241.125 37.4511C242.456 37.4179 243.778 37.6702 245.002 38.1911C246.075 38.6755 247.011 39.4181 247.727 40.3527C248.489 41.3682 249.042 42.5253 249.353 43.7567C249.723 45.1971 249.902 46.6798 249.886 48.1668C249.955 50.2979 249.562 52.4187 248.732 54.3826Z" fill="white"/>
<path d="M275.873 33.1002C274.766 33.3978 273.709 33.8565 272.735 34.4617C271.726 35.0925 270.793 35.8374 269.953 36.6816C269.813 36.8217 269.678 36.9776 269.539 37.1246V32.7163L263.501 33.6043V63.4991H269.539V41.1342C269.987 40.8206 270.452 40.5302 270.93 40.264C271.522 39.9372 272.136 39.6504 272.766 39.4057C273.377 39.1689 273.999 38.9617 274.63 38.7841C275.28 38.6031 275.943 38.4741 276.613 38.3983C277.33 38.3195 278.053 38.3 278.774 38.3402L279.484 32.7746C278.271 32.6883 277.051 32.7982 275.873 33.1002Z" fill="white"/>
<path d="M301.565 58.5562C301.287 58.6154 300.982 58.6736 300.646 58.7337L299.641 58.9104C299.318 58.9688 298.992 59.0086 298.664 59.0298C298.347 59.0495 298.051 59.0594 297.776 59.0594C296.869 59.0836 295.968 58.9014 295.142 58.5266C294.432 58.1894 293.843 57.6417 293.455 56.9579C293.04 56.1854 292.836 55.3173 292.863 54.441V38.0442H301.21L301.861 33.3084H292.863V23.9562L286.825 26.0873V33.3084H282.266L281.614 38.0442H286.825V55.6851C286.798 56.8618 286.978 58.034 287.357 59.1482C287.662 60.0293 288.134 60.8431 288.748 61.5446C289.311 62.1704 289.996 62.674 290.761 63.0246C291.544 63.3849 292.369 63.6438 293.217 63.7951C294.057 63.9499 294.909 64.0291 295.762 64.0319C296.394 64.0319 297.016 64.0119 297.628 63.9718C298.24 63.9317 298.803 63.8727 299.315 63.7951C299.827 63.7152 300.312 63.6264 300.766 63.5278C301.22 63.4291 301.603 63.3424 301.919 63.2624L302.275 58.348C302.045 58.4372 301.807 58.5069 301.565 58.5562Z" fill="white"/>
</svg>

<svg xmlns="http://www.w3.org/2000/svg" viewBox="0 0 323 85"><path fill="#E81502" d="M0 .5h323v84H0z"/><path fill="#fff" d="M20 63.5V21.504h13.78V63.5H20Zm32.528-35.312L60.453 63.5h-15.08l-9.464-41.996h8.459a7.965 7.965 0 0 1 5.293 1.922 8.31 8.31 0 0 1 2.867 4.762ZM62.523 63.5V21.504h13.78V63.5h-13.78Zm24.189-26.026a8.213 8.213 0 0 1-4.228-1.124 8.336 8.336 0 0 1-3.046-3.046 8.206 8.206 0 0 1-1.125-4.229 8.056 8.056 0 0 1 1.125-4.2 8.437 8.437 0 0 1 3.046-3.016 8.233 8.233 0 0 1 4.228-1.124 8.083 8.083 0 0 1 4.199 1.124 8.504 8.504 0 0 1 3.016 3.016 8.075 8.075 0 0 1 1.125 4.2 8.226 8.226 0 0 1-1.125 4.23 8.4 8.4 0 0 1-3.016 3.045 8.059 8.059 0 0 1-4.201 1.124h.002ZM97.18 63.5V21.504h13.781V63.5H97.181Zm31.227-19.046c.039.04.334.524.887 1.449.553.925 1.272 2.108 2.159 3.549a1143.28 1143.28 0 0 1 5.589 9.168A854.89 854.89 0 0 0 140 63.5h-15.141c-.947-1.538-1.804-2.928-2.573-4.17a388.795 388.795 0 0 1-2.453-4.022 355.984 355.984 0 0 0-2.574-4.2 210.645 210.645 0 0 1-2.188-3.578 62.13 62.13 0 0 0-1.272-2.07 6.127 6.127 0 0 1-1.005-2.958 5.745 5.745 0 0 1 .946-2.84c.236-.394.67-1.094 1.301-2.1.631-1.006 1.37-2.198 2.218-3.578.847-1.38 1.706-2.79 2.574-4.23.869-1.439 1.686-2.79 2.453-4.052.77-1.26 1.628-2.66 2.573-4.2H140l-11.711 19.106a3.773 3.773 0 0 0-.592 1.894c.039.706.286 1.385.709 1.952h.002ZM181.78 43.846a11.207 11.207 0 0 0-2.959-2.161 23.11 23.11 0 0 0-3.582-1.45 40.58 40.58 0 0 0-3.907-1.008 84.993 84.993 0 0 1-2.871-.71 13.223 13.223 0 0 1-2.368-.859 7.805 7.805 0 0 1-1.804-1.183 4.257 4.257 0 0 1-1.156-1.657 6.407 6.407 0 0 1-.383-2.34 7.127 7.127 0 0 1 .383-2.426 4.516 4.516 0 0 1 1.184-1.806 7.312 7.312 0 0 1 1.865-1.242 8.779 8.779 0 0 1 2.457-.71 20.727 20.727 0 0 1 3.048-.208c.93.002 1.858.051 2.783.147.934.098 1.863.247 2.782.445.892.194 1.772.441 2.634.74.808.278 1.59.624 2.338 1.035l.829-5.208a14.754 14.754 0 0 0-2.634-1.066 35.268 35.268 0 0 0-2.812-.711 28.106 28.106 0 0 0-2.901-.443 30.307 30.307 0 0 0-3.019-.148 25.191 25.191 0 0 0-6.216.71 14.076 14.076 0 0 0-4.824 2.19 9.888 9.888 0 0 0-3.137 3.73 12.052 12.052 0 0 0-1.096 5.327 11.45 11.45 0 0 0 .681 4.172 8.552 8.552 0 0 0 1.924 2.99 11.45 11.45 0 0 0 2.841 2.073 21.707 21.707 0 0 0 3.464 1.421c1.243.395 2.516.73 3.818 1.007a53.03 53.03 0 0 1 2.96.74c.844.232 1.666.54 2.456.917.68.32 1.308.74 1.865 1.243a4.994 4.994 0 0 1 1.214 1.776c.313.812.464 1.676.444 2.546a8.256 8.256 0 0 1-.415 2.723 6.309 6.309 0 0 1-1.184 2.072 5.7 5.7 0 0 1-1.894 1.42 9.563 9.563 0 0 1-2.576.77 20.498 20.498 0 0 1-3.285.237 25.744 25.744 0 0 1-3.196-.207 38.555 38.555 0 0 1-3.315-.564 33.21 33.21 0 0 1-3.226-.858 61.647 61.647 0 0 1-2.99-1.035l.77 5.86c1.009.377 2.036.703 3.078.977.946.248 1.904.445 2.871.591.926.138 1.853.246 2.782.326.929.08 1.866.119 2.811.118a29.093 29.093 0 0 0 6.305-.65 15.097 15.097 0 0 0 5.151-2.132 10.023 10.023 0 0 0 3.433-3.877 13.099 13.099 0 0 0 1.214-5.95 13.353 13.353 0 0 0-.681-4.5 8.738 8.738 0 0 0-1.954-3.194ZM214.339 34.522a12.72 12.72 0 0 0-7.074-1.865 18.06 18.06 0 0 0-4.38.562 19.035 19.035 0 0 0-4.44 1.747c-.278.15-.555.319-.829.487v-2.737l-6.038.948V75.93h6.038V62.676c.04.017.078.036.118.054 1.094.454 2.236.781 3.404.976 1.379.228 2.775.337 4.173.326 2.665.046 5.293-.63 7.606-1.955a14.047 14.047 0 0 0 5.328-5.652 18.892 18.892 0 0 0 1.983-9.028 18.384 18.384 0 0 0-1.51-7.695 11.887 11.887 0 0 0-4.379-5.18Zm-1.568 19.802a8.156 8.156 0 0 1-3.404 3.728 10.943 10.943 0 0 1-5.417 1.244c-.902 0-1.802-.069-2.694-.208a16.865 16.865 0 0 1-2.752-.68 56.55 56.55 0 0 1-.888-.32V39.407c.078-.037.159-.084.237-.12.867-.394 1.676-.73 2.427-1.007a12.14 12.14 0 0 1 4.203-.77c1.824-.06 3.635.337 5.267 1.155a7.097 7.097 0 0 1 3.167 3.521 15.14 15.14 0 0 1 1.036 6.038 14.144 14.144 0 0 1-1.182 6.1ZM249.088 34.551a16.237 16.237 0 0 0-8.021-1.894 16.168 16.168 0 0 0-8.082 1.954 13.649 13.649 0 0 0-5.387 5.505 17.416 17.416 0 0 0-1.924 8.405 18.152 18.152 0 0 0 1.806 8.377 12.358 12.358 0 0 0 5.18 5.358 16.097 16.097 0 0 0 7.814 1.834 16.683 16.683 0 0 0 8.169-1.953 13.784 13.784 0 0 0 5.536-5.565 17.45 17.45 0 0 0 1.983-8.524 17.153 17.153 0 0 0-1.836-8.14 12.936 12.936 0 0 0-5.238-5.357Zm-.356 19.832a8.08 8.08 0 0 1-3.225 3.7 9.203 9.203 0 0 1-4.736 1.213 8.42 8.42 0 0 1-4.619-1.244 8.34 8.34 0 0 1-3.078-3.729 14.929 14.929 0 0 1-1.125-6.156 13.936 13.936 0 0 1 1.125-5.98 7.872 7.872 0 0 1 3.168-3.552 9.572 9.572 0 0 1 4.883-1.184 9.308 9.308 0 0 1 3.877.74 7.126 7.126 0 0 1 2.725 2.162 9.58 9.58 0 0 1 1.626 3.404c.37 1.44.549 2.923.533 4.41a14.741 14.741 0 0 1-1.154 6.216ZM275.873 33.1a11.701 11.701 0 0 0-3.138 1.362 15.563 15.563 0 0 0-2.782 2.22c-.14.14-.275.296-.414.443v-4.409l-6.038.888V63.5h6.038V41.134a15.152 15.152 0 0 1 3.227-1.728 20.607 20.607 0 0 1 1.864-.622 12.724 12.724 0 0 1 4.144-.444l.71-5.565a11.312 11.312 0 0 0-3.611.325ZM301.565 58.556c-.278.06-.583.118-.919.178l-1.005.176a8.611 8.611 0 0 1-.977.12c-.317.02-.613.03-.888.03a5.989 5.989 0 0 1-2.634-.533 3.828 3.828 0 0 1-1.687-1.57 4.993 4.993 0 0 1-.592-2.516V38.044h8.347l.651-4.736h-8.998v-9.352l-6.038 2.131v7.221h-4.559l-.652 4.736h5.211v17.641a10.039 10.039 0 0 0 .532 3.463 7.228 7.228 0 0 0 1.391 2.397 6.16 6.16 0 0 0 2.013 1.48c.783.36 1.608.619 2.456.77.84.155 1.692.234 2.545.237.632 0 1.254-.02 1.866-.06a20.074 20.074 0 0 0 3.138-.444c.454-.099.837-.186 1.153-.266l.356-4.914c-.23.09-.468.159-.71.208Z"/></svg>
